X:1
T:Sands, 88.88.88.8
T:William James Kirkpatrick, 1901
T:Sands, 88.88.88.8
T:Public Domain
C:William James Kirkpatrick, 1901
Z:Public Domain
%%score ( 1 2 ) ( 3 4 )
L:1/8
M:3/4
K:Ab
V:1 treble 
V:2 treble 
V:3 bass 
V:4 bass 
V:1
 [CE][EA] [EB] | [Ec]3 [FB] [EA][EG] | [EA]3 E [EA][Ec] | [Ee]3 [Ec] [EB][=DA] | %4
 [EB]3 [DE] [CA][DB] | [Ec]3 [EA] [EB][Ec] | [Dd]3 F [FG][FA] | [Ec]3 [EB] [EA][EG] | %8
 [EA]3 [Cc] [Cc][Cc] | [Cc]3 [=EG] [FA][FB] | [=Ec]3 [_E_e] [Ae][Ae] | [Ge]3 [EB] [Ec][Ed] | %12
 [Ec]3 [FA] [FA][FA] | [FA][FA] [FB]2 [EG]2 | [EA]3 |] %15
V:2
 x3 | x6 | x3 E x2 | x6 | x6 | x6 | x3 F x2 | x6 | x6 | x6 | x6 | x6 | x6 | x6 | x3 |] %15
V:3
 [A,,A,][C,A,] [E,G,] | A,3 [D,D] [E,C][E,B,] | [A,,C]3 [A,C] [A,C][A,E] | [A,C]3 A, [G,B,][F,B,] | %4
 [E,G,]3 [E,G,] [A,,A,][A,,A,] | [A,,A,]3 [A,C] [G,B,][_G,A,] | [F,A,]3 [D,A,] [D,A,][D,A,] | %7
 [F,A,]3 [E,D] [E,C][E,B,] | [A,,C]3 C CC | C3 [C,C] [F,C][D,F,] | [C,G,]3 [A,C] [A,C][A,C] | %11
 [E,B,]3 [E,G,] [E,A,][E,B,] | A,3 [F,C] [F,C][F,C] | [D,D][D,D] [B,,D]2 [E,B,]2 | [A,,C]3 |] %15
V:4
 x3 | A,3 x3 | x6 | x3 A, x2 | x6 | x6 | x6 | x6 | x3 C CC | C3 x3 | x6 | x6 | A,3 x3 | x6 | x3 |] %15

